svgs/sharp-duotone-light/key-skeleton.svg

<svg xmlns="http://www.w3.org/2000/svg" viewBox="0 0 448 512"><!--! Font Awesome Pro 7.1.0 by @fontawesome - https://fontawesome.com License - https://fontawesome.com/license (Commercial License) Copyright 2025 Fonticons, Inc. --><path opacity=".4" fill="currentColor" d="M192 144a112 112 0 1 0 224 0 112 112 0 1 0 -224 0z"/><path fill="currentColor" d="M304 32a112 112 0 1 1 0 224 112 112 0 1 1 0-224zm0 256c79.5 0 144-64.5 144-144S383.5 0 304 0 160 64.5 160 144c0 34 11.8 65.2 31.5 89.9-236.6 236.6-165.8 165.8-190.1 190.1l11.3 11.3 64 64 11.3 11.3 22.6-22.6-11.3-11.3-52.7-52.7 33.4-33.4 52.7 52.7 11.3 11.3 22.6-22.6-11.3-11.3-52.7-52.7 111.5-111.5C238.7 276.2 270 288 304 288z"/></svg>

<svg xmlns="http://www.w3.org/2000/svg" viewBox="0 0 448 512"><!--! Font Awesome Pro 6.7.2 by @fontawesome - https://fontawesome.com License - https://fontawesome.com/license (Commercial License) Copyright 2024 Fonticons, Inc. --><defs><style>.fa-secondary{opacity:.4}</style></defs><path class="fa-secondary" d="M192 144a112 112 0 1 0 224 0 112 112 0 1 0 -224 0z"/><path class="fa-primary" d="M304 32a112 112 0 1 1 0 224 112 112 0 1 1 0-224zm0 256c79.5 0 144-64.5 144-144S383.5 0 304 0S160 64.5 160 144c0 34 11.8 65.2 31.5 89.9L80 345.4 57.4 368 12.7 412.7 1.4 424l11.3 11.3 64 64L88 510.6 110.6 488 99.3 476.7 46.6 424 80 390.6l52.7 52.7L144 454.6 166.6 432l-11.3-11.3L102.6 368 214.1 256.5C238.8 276.2 270 288 304 288z"/></svg>
